UI/Discovery-Sharing/SVG/download_outline_24px.svg

<svg width="24" height="24" viewBox="0 0 24 24" fill="none" xmlns="http://www.w3.org/2000/svg">
<path fill-rule="evenodd" clip-rule="evenodd" d="M2 15H4V20H20V15H22V20C21.9825 20.5249 21.7662 21.0235 21.3949 21.3949C21.0235 21.7662 20.5249 21.9825 20 22H4C3.47512 21.9825 2.9765 21.7662 2.60514 21.3949C2.23379 21.0235 2.01747 20.5249 2 20V15ZM17 10L12 15L7 10L8.24 8.76L11 11.5V2H13V11.5L15.76 8.76L17 10Z" fill="#0F1621"/>
</svg>

<svg xmlns="http://www.w3.org/2000/svg" width="24" height="24" viewBox="0 0 24 24"><rect width="24" height="24" transform="translate(24 0) rotate(90)" style="fill:none;opacity:0"/><path d="M2,15H4v5H20V15h2v5a2.07,2.07,0,0,1-2,2H4a2.07,2.07,0,0,1-2-2Zm15-5-5,5L7,10,8.24,8.76,11,11.5V2h2v9.5l2.76-2.74Z" style="fill-rule:evenodd"/></svg>
